X:1
T:Bring in the Children
T:Bring in the Children
T:Ira David Sankey
T:Frances Jane (Fanny) Crosby, 1898
T:Public Domain, Courtesy of the Cyber Hymnal™
T:Public Domain, Courtesy of the Cyber Hymnal™
C:Ira David Sankey
Z:Public Domain,
Z:Courtesy of the Cyber Hymnal™
%%score ( 1 2 ) ( 3 4 )
L:1/8
Q:1/4=115
M:4/4
K:Bb
V:1 treble 
V:2 treble 
V:3 bass 
V:4 bass 
V:1
 [DB]2 [DB]>[DB] [DB]2 DE | F2 [FG]>[EA] [DB]4 | [Fc]2 [Fc]>[Fc] [Fc]2 [Fd][FB] | %3
w: 1.~Bring in the child- ren, O|bring them to- day;|Speak to them gent- ly, and|
w: 2.~Bring in the child- ren, O|seek them a- broad,|Win them from e- vil, and|
w: 3.~Bring in the child- ren, so|friend- less and poor;|Joy to their hearts will the|
 [FA]2 [=EG]>[EG] F4 | [DB]2 [DB]>[DB] [DB]2 D[DF] | [FB]2 [Fc]>[Fc] [Fd]4 | %6
w: show them the way;|Care- less they wan- der, and|thought- less they roam;|
w: train them for God;|Glad- ly our mis- sion O|let us ful- fill,|
w: Sav- ior re- store;|Bring in the child- ren, com-|pel them to come;|
 [Ee]2 [Fd]>[Fc] [FB]2 [DF][Fd] | [Ec]2 [DB]>[CA] [DB]4 ||"^Refrain" [Fd]4- [Fd][Ge] [Fd]>[Ec] | %9
w: Bring in the child- ren, for|here is their home.|Bring, * O bring the|
w: Know- ing that Je- sus will|be with us still.||
w: Je- sus in- vites them, and|yet there is room.||
 [DB]4 [DF]2 [FB]2 | [EB]2 [EA]>[EA] [EA]2 [Fe]2 | [Ge]2 [Fd]>[Fd] [Fd]4 | %12
w: child- ren, O|bring them to- day, O|bring them to- day;|
w: |||
w: |||
 [Fd]4- [Fd][Ge] [Fd]>[Ec] | [DB]4 [DF]2 [FB]2 | [Gc]2 [Fd]2 [Ee]2 [EA]2 | [DB]8 |] %16
w: Bring, * O bring the|child- ren, O|bring them in to-|day.|
w: ||||
w: ||||
V:2
 x6 DE | F2 x6 | x8 | x4 (F2 _E2) | x6 D x | x8 | x8 | x8 || x8 | x8 | x8 | x8 | x8 | x8 | x8 | %15
 x8 |] %16
V:3
 [B,,F,]2 [B,,F,]>[B,,F,] [B,,F,]2 D,E, | F,2 [F,B,]>[F,C] [B,,B,]4 | %2
w: ~ ~ ~ ~ ~ ~|~ ~ ~ ~|
 [F,A,]2 [F,A,]>[F,A,] [F,A,]2 B,[B,,D] | [C,C]2 [C,B,]>[C,B,] [F,A,]4 | %4
w: ~ ~ ~ ~ ~ ~|~ ~ ~ ~|
 [B,,B,]2 [B,,F,]>[B,,F,] [B,,F,]2 [B,,F,][B,,B,] | [D,B,]2 [F,A,]>[F,A,] B,4 | %6
w: ~ ~ ~ ~ ~ ~|~ ~ ~ ~|
 [G,B,]2 [F,B,]>[E,A,] [D,B,]2 [B,,B,][B,,B,] | [E,G,]2 F,>F, [B,,F,]4 || %8
w: ~ ~ ~ ~ ~ ~|~ ~ ~ ~|
 [B,,B,]2 [B,,B,]2 [B,,B,]2 [B,,B,]2 | [B,,F,]4 [B,,B,]2 [B,,B,]2 | %10
w: Bring, O bring the|~ ~ ~|
 [F,C]2 [F,C]>[F,C] [F,C]2 [A,C]2 | B,2 B,>B, B,4 | [B,,B,]2 [B,,B,]2 [B,,B,]2 [B,,B,]2 | %13
w: ~ ~ ~ ~ ~|~ ~ ~ ~|Bring, O bring the|
 [B,,F,]4 [B,,B,]2 [D,B,]2 | [E,B,]2 [D,=B,]2 [C,C]2 [F,C]2 | [B,,B,]8 |] %16
w: |||
V:4
 x6 D,E, | F,2 x6 | x6 B, x | x8 | x8 | x4 B,4 | x8 | x2 F,>F, x4 || x8 | x8 | x8 | B,2 B,>B, B,4 | %12
 x8 | x8 | x8 | x8 |] %16

